X:631
T:Darby the driver
R:Jig
O:Ireland
S:Mike Long
B:Krassen O'Neill's
B:O'Neill's 789
S:O'Neill's 789
Z:Transcription, arrangement, chords:Mike Long
M:6/8
L:1/8
K:C
G|\
"Am"EAA ABc|BAA A2(B/c/)|"G"d2e dBg|BGG GAG|\
"Am"EAA A2c|BAA A2(B/c/)|"Em"d2e "G"dBg|"Am"BAA A2:|
|:e|\
"A"a^ga a2e|a^ga a2e|"G"=gag ege|dBG G2e|\
"A"a^ga a2e|"Dm"def "G"g2g|"Em"ege "G"dBg|"Am"BAA A2:|
